X:1
T:Title
L:1/8
M:3/4
I:linebreak $
K:D
V:1 treble nm="Voice"
V:1
"D" D2 F2 D2 | A6 |"G" G2 B2 G2 |"D" F4 E2 |"D" D2 F2 D2 | A6 |1"A7" G2 F2 E2 |"D" D6 :|2 %8
"G" G2 FG FG |"A7" A6 |:"G" G2 BG EG |"D" F2 AF DF |"A7" E2 GE CE |"D" D2 FD AD |"G" G2 BG EG | %15
"D" F2 AF DF |"A7" E2 GE CE |"D" D6 :| %18
